X:149
T:Jesus Christ, Our Blessed Savior
%%stretchlast false
M:4/4
L:1/4
K:Eb clef=C1
"^I"[E,G,B,E]2 "^V"[B,,F,DB]2 | "^I"[E,B,G] "^vi"[C,G,CE] "^V7³"[A,,B,DF] "^I"[E,B,G] | "^IV"[A,,E,CA]2 "^I"[E,B,G]2 | [E,G,B,E] "^V"[B,,F,DB] "^vi"[C,E,EG] "^IV"[A,,A,Ec] | "^I"[E,G,EB] "^ii"[F,CA] "^V"[B,,F,DB]2 | "^I"[E,B,G]4 | [E,G,EB] "^V¹"[D,B,FB] "^IV¹"[C,CEA] "^I"[E,B,EG] | "^I¹"[G,,B,EG] "^V"[B,,B,DF] "^vi"[C,G,CE]2 | "^V"[B,,F,DB]2 "^I"[E,,E,B,G] "^I¹"[G,,E,B,E] | "^V"[B,,F,DB] "^ii"[F,,F,CA] "^vi"[C,E,CG] "^ii¹"[A,,CF] | "^III"[G,,=B,DG]4 |]
